public/medias/icons/Font_Awesome.svg

<svg xmlns="http://www.w3.org/2000/svg" xmlns:xlink="http://www.w3.org/1999/xlink" width="800px" height="800px" viewBox="0 0 256 256" version="1.1" preserveAspectRatio="xMidYMid"><g><path d="M227.314286,0 L28.6857143,0 C12.9714286,0 0,12.9714286 0,28.6857143 L0,227.314286 C0,243.028571 12.9714286,256 28.6857143,256 L227.314286,256 C243.028571,256 256,243.028571 256,227.314286 L256,28.6857143 C256,12.9714286 243.028571,0 227.314286,0 Z M201.371429,162.457143 C201.371429,164.857143 199.314286,165.885714 196.914286,166.914286 C187.371429,171.028571 177.142857,174.742857 166.171429,174.742857 C150.8,174.742857 143.657143,165.2 125.2,165.2 C111.885714,165.2 97.8857143,170 86.6285714,175.085714 C85.9428571,175.428571 85.2571429,175.428571 84.5714286,175.771429 L84.5714286,201.714286 C84.5714286,202.742857 84.5714286,203.771429 84.2285714,204.457143 L84.2285714,205.142857 C82.8571429,209.942857 78.4,213.314286 73.3142857,213.314286 C66.8571429,213.314286 61.7142857,208.171429 61.7142857,201.714286 L61.7142857,76.8 C57.2571429,73.3714286 54.2285714,67.9428571 54.2285714,61.7714286 C54.2285714,51.2 62.7428571,42.6285714 73.3714286,42.6285714 C83.9428571,42.6285714 92.5142857,51.1428571 92.5142857,61.7714286 C92.5142857,67.9428571 89.7714286,73.3714286 85.0285714,76.8 L85.0285714,87.3714286 C86.0571429,87.0285714 87.0857143,86.6857143 88.1142857,86 C98.6857143,81.5428571 111.314286,77.8285714 123.257143,77.8285714 C136.228571,77.8285714 146.457143,81.2571429 158.057143,85.6571429 C160.457143,86.6857143 162.857143,87.0285714 165.542857,87.0285714 C178.514286,87.0285714 192.857143,77.8285714 196.285714,77.8285714 C199.028571,77.8285714 201.428571,79.8857143 201.428571,82.2857143 L201.428571,162.457143 L201.371429,162.457143 Z" fill="#339AF0" fill-rule="nonzero"></path></g></svg>

<svg xmlns="http://www.w3.org/2000/svg" width="800" height="800" preserveAspectRatio="xMidYMid" viewBox="0 0 256 256">
  <path fill="#339AF0" d="M227.31 0H28.7A28.85 28.85 0 0 0 0 28.69V227.3A28.85 28.85 0 0 0 28.69 256H227.3a28.85 28.85 0 0 0 28.7-28.69V28.7A28.85 28.85 0 0 0 227.31 0Zm-25.94 162.46c0 2.4-2.06 3.43-4.46 4.45-9.54 4.12-19.77 7.83-30.74 7.83-15.37 0-22.51-9.54-40.97-9.54-13.31 0-27.31 4.8-38.57 9.89-.69.34-1.37.34-2.06.68v25.94c0 1.03 0 2.06-.34 2.75v.68a11.35 11.35 0 0 1-10.92 8.17c-6.45 0-11.6-5.14-11.6-11.6V76.8a19 19 0 0 1-7.48-15.03 19.1 19.1 0 0 1 19.14-19.14 19.1 19.1 0 0 1 19.14 19.14 18.2 18.2 0 0 1-7.48 15.03v10.57c1.03-.34 2.06-.68 3.08-1.37 10.58-4.46 23.2-8.17 35.15-8.17 12.97 0 23.2 3.43 34.8 7.83 2.4 1.03 4.8 1.37 7.48 1.37 12.97 0 27.32-9.2 30.75-9.2 2.74 0 5.14 2.06 5.14 4.46v80.17h-.06Z"/>
</svg>
